X:44
T:As You Were
C:James McNally (Afro Celt Sound System), 2003
N:Transposed by Frank Hoppe.  Chords by Jon Berger.
L:1/8
M:6/8
R:Jig
S:Colin Hume's website,  colinhume.com  - chords can also be printed below the stave.
%%MIDI program 21       % Accordion
%%MIDI chordprog 27     % Electric Guitar (clean)
%%MIDI bassprog 33      % Electric Bass (finger)
Q:3/8=119
K:F
P:A
|: "F"ABA GFD | "F"CDF "C"GAc | "Bb"d_ed "F"cAG | "Bb"d_ed "F"cAG |
"F"A/B/cA GFD | "F"CDF "C"GAc | "Bb"d_ed "F"cAF |1 "C"GFE "F"F2B :|2 "C"GFE "F"F2e |
P:B
|: "Dm"fcA "Gm"dBG | "F"cAF "Gm"BAG | "Dm"AFD DFD | "Dm"AFD "C"EFG |
"Dm"fcA "Gm"dBG | "F"cAF "Gm"BAG | "C"EFG cGE |1 "C"GFE "F"Feg :|2 "C"GFE "F"F3 |]

